**kern	**kern	**dynam
*part1	*part1	*part1
*staff2	*staff1	*
*I"Piano	*	*
*clefF4	*clefG2	*
*k[f#c#g#d#]	*k[f#c#g#d#]	*
=1	=1	=1
2CCn 2Cn	2A 2e 2a	.
4CC 4C	4A 4e 4f#	.
=	=	=
2BBB 2BB	2A 2e 2f#	p
4BBB 4BB	4A 4d# 4f#	.
=	=	=
2EE 2BB	[2G# [2e [2g#	.
4BBB 4BB	4G#] 4e] 4g#]	.
=	=	=
2EE 2BB	4e 4g#	pp
.	(8BL 8f#	.
.	8G# 8e	.
4BBB 4BB	8B 8f#	.
.	8eJ) 8g#	.
=	=	=
2EE 2BB	(8.g#L 8.b	.
.	16aJk) 16cc#	.
.	2g# 2b	.
4BBB 4BB	.	.
=	=	=
2FF# 2BB	(8.c#L 8.a	<
.	16d#Jk) 16b	.
.	2c# 2a	[ >
4BBB 4BB	.	.
=	=	=
!	!LO:TX:a:i:t=rit.	!
2DD# 2BB	(8.AL 8.f#	]
.	16BJk) 16g#	.
.	2A 2f#	.
4BBB 4BB	.	.
=||	=||	=||
*-	*-	*-
!!!system-decoration: {(s1,s2)}
